X: 23044
T: Last Rose Of Summer, The
R: waltz
M: 3/4
K: Dmajor
D>E|F2 dc B>A|A F3 D>E|F2 AF E>D|D4 D>E|
F2 dc B>A|A F3 D>E|F2 AF E>D|D4 A>F|
B2 dc B>A|A2 F2 A>F|B2 dc B^A|Bc d2 D>E|
F2 dc B>A|A F3 D>E|F2 AF E>D|D4||

